X: 867
T: The Butcher's March
N:"Collected by Hartnett"
B:O'Neill's 867
Z:Transcribed by Dan G. Petersen, dangp@post6.tele.dk
M:6/8
L:1/8
K:G
g|fAA eAA|~d2B A2g|fAA eAA|~d2B G2g|
fAA eAA|fAA efg|faf gfe|~d2B G2:|
(B/c/)|ded BAB|~d2B A2B|ded BAB|~d2B G2B|
ded BAB|~d2B A2g|faf gfe|~d2B G2:|


